!!!OTL: Der junge Held Des Abends in dem Mondensching
!!!ARE: Europa, Mitteleuropa, Deutschland (BRD), Rheinland, Bergisches Land,
!!    Paffrath
!!!YOR: 3, S. 144
!!    ????
!!!SCT: Q0060A
!!!YEM: Copyright 1995, estate of Helmut Schaffrath.
**kern
*ICvox
*Ivox
*M6/8
*k[f#c#]
*D:
{8d
=1
4d
8a
8a
8b
8ccn
=2
4b
8a
4g}
{8g
=3
4a
8a
4b
8cc#
=4
4dd
8dd
4a}
{8e
=5
4a
8a
4b
8cc#
=6
4.dd
4ee}
{8dd
=7
4cc#
8a
8g#
8a
8b
=8
4.a
4r}
{8a
=9
4dd
8dd
8a
8b
8cc#
=10
4.dd
4a}
{8a
=11
4b-
8a
4g
8g
=12
4.a
4e}
{16fn
16e
=13
4d
8d
8e
8fn
8g
=14
4.a
4b-}
{8a
=15
8g
8g
8fn
4e
8fn
=16
4.d
4r}
==
!!!AGN: Ballade, Verfuehrung, Standesunterschied
!! "Hei" am Ende der dritten und siebten Zeile.
!!!ONB: ESAC (Essen Associative Code) Database: BALLADE
!!!AMT: compound duple
!!!AIN: vox
!!!EED: Helmut Schaffrath
!!!EEV: 1.0
*-
